assets/spdx/mono.svg

<svg viewBox="0 0 24 24" xmlns="http://www.w3.org/2000/svg"><path d="m0 0v24h8.222l2.089-2.373 2.09-2.374v-6.053h6.577l2.51-2.488 2.512-2.489v-8.223h-12zm5.2 5.2h13.791l-6.791 6.8c-3.735 3.74-6.838 6.8-6.896 6.8-.057 0-.104-3.06-.104-6.8zm8.4 8.8v10h10.4v-10h-5.2z"/></svg>

<svg xmlns="http://www.w3.org/2000/svg" viewBox="0 0 24 24"><path d="M0 0v24h8.222l2.089-2.373 2.09-2.374V13.2h6.577l2.51-2.488L24 8.223V0H12zm5.2 5.2h13.791L12.2 12c-3.735 3.74-6.838 6.8-6.896 6.8S5.2 15.74 5.2 12zm8.4 8.8v10H24V14h-5.2z"/></svg>
